X:1
T:We Dear Labouring Men
M:6/8
L:1/8
K:C
 G| F2 E C2 C| E2 F G2 G| F2 E C2 B,| C3 z CC| E2 FG-A B| c2 A B2 c|\
 _B2 GF-E F| G3 z CC| E2 FG-A B| c2 A B2 c| _B2 GF-E F| G3 z2 G| F/2 F3/2 E C2 D|\
 E2 F G2 D| F2 E C2 B,| C3||

